static/client-logos/fluidity-tech-icon.svg

<svg height="55" viewBox="0 0 42 55" width="42" xmlns="http://www.w3.org/2000/svg" xmlns:xlink="http://www.w3.org/1999/xlink"><linearGradient id="a" x1="58.733183%" x2="24.394796%" y1="5.71077%" y2="99.260388%"><stop offset="0" stop-color="#fff"/><stop offset="1" stop-color="#fff" stop-opacity="0"/></linearGradient><g fill="none" fill-rule="evenodd"><path d="m37.696 21.04c2.026-.6 3.85-2.094 3.85-4.6v-9.316c0 4.6-6.35 6.552-12.294 7.97-6.554 1.554-13.174 6.352-13.174 15.472v23.434c.0042231.3002035.1913326.5673895.472.674 2.096.4 4.6.2 6.216-.066.946-.136 1.824-.812 1.824-2.298v-5.6c0-4.4 1.756-5.81 3.648-6.554 1.486-.6 5.946-2.364 8.444-3.31 2.094-.81 4.73-1.892 4.73-5.134v-6.348s-.2 1.554-2.094 2.364c-2.094.878-2.702 1.08-7.162 2.702-4.8 1.824-7.43.878-7.43-1.96 0-3.782 7.16-5.606 12.97-7.43z" fill="#fff"/><path d="m34.926 10.096c1.216 3.242-3.446 4.4-5.674 5 5.876-1.418 12.294-3.376 12.294-7.97 0-2.298-2.498-7.568-13.714-7.094-9.998.404-27.632 6.216-27.632 29.524v20.672c-.02433465.3045049.13224323.5949568.4.742.878.54 2.77 1.284 6.012 2.298.338.134.744 0 1.082-.2.28704693-.2601162.45718889-.6249121.472-1.012v-21.086c0-7.026.472-11.754 6.08-17.158 7.642-7.364 19.464-6.958 20.68-3.716z" fill="url(#a)" opacity=".8"/></g></svg>

<?xml version="1.0" encoding="UTF-8"?>
<svg width="42px" height="55px" viewBox="0 0 42 55" version="1.1" xmlns="http://www.w3.org/2000/svg" xmlns:xlink="http://www.w3.org/1999/xlink">
    <!-- Generator: Sketch 52.6 (67491) - http://www.bohemiancoding.com/sketch -->
    <title>fluidity-tech-icon</title>
    <desc>Created with Sketch.</desc>
    <defs>
        <linearGradient x1="58.7331834%" y1="5.71076994%" x2="24.3947962%" y2="99.2603876%" id="linearGradient-1">
            <stop stop-color="#FFFFFF" offset="0%"></stop>
            <stop stop-color="#FFFFFF" stop-opacity="0" offset="100%"></stop>
        </linearGradient>
    </defs>
    <g id="fluidity-tech-icon" stroke="none" stroke-width="1" fill="none" fill-rule="evenodd">
        <path d="M37.696,21.04 C39.722,20.44 41.546,18.946 41.546,16.44 L41.546,7.124 C41.546,11.724 35.196,13.676 29.252,15.094 C22.698,16.648 16.078,21.446 16.078,30.566 L16.078,54 C16.0822231,54.3002035 16.2693326,54.5673895 16.55,54.674 C18.646,55.074 21.15,54.874 22.766,54.608 C23.712,54.472 24.59,53.796 24.59,52.31 L24.59,46.71 C24.59,42.31 26.346,40.9 28.238,40.156 C29.724,39.556 34.184,37.792 36.682,36.846 C38.776,36.036 41.412,34.954 41.412,31.712 L41.412,25.364 C41.412,25.364 41.212,26.918 39.318,27.728 C37.224,28.606 36.616,28.808 32.156,30.43 C27.356,32.254 24.726,31.308 24.726,28.47 C24.726,24.688 31.886,22.864 37.696,21.04 Z" id="Shape" fill="#FFFFFF"></path>
        <path d="M34.926,10.096 C36.142,13.338 31.48,14.496 29.252,15.096 C35.128,13.678 41.546,11.72 41.546,7.126 C41.546,4.828 39.048,-0.442 27.832,0.032 C17.834,0.436 0.2,6.248 0.2,29.556 L0.2,50.228 C0.175665347,50.5325049 0.332243226,50.8229568 0.6,50.97 C1.478,51.51 3.37,52.254 6.612,53.268 C6.95,53.402 7.356,53.268 7.694,53.068 C7.98104693,52.8078838 8.15118889,52.4430879 8.166,52.056 L8.166,30.97 C8.166,23.944 8.638,19.216 14.246,13.812 C21.888,6.448 33.71,6.854 34.926,10.096 Z" id="Shape-2" fill="url(#linearGradient-1)" opacity="0.8"></path>
    </g>
</svg>
